dist/svgs/crypto-icons/icons/bch.svg

<?xml version="1.0" encoding="UTF-8" standalone="yes"?>
<svg xmlns="http://www.w3.org/2000/svg" xmlns:xlink="http://www.w3.org/1999/xlink" width="512px" height="512px" viewBox="0 0 384 384" version="1.1">
  <g id="surface1">
    <path style=" stroke:none;fill-rule:nonzero;fill:rgb(0%,0%,0%);fill-opacity:1;" d="M 192.28125 73.585938 C 182.523438 73.570312 172.609375 74.769531 162.71875 77.292969 L 162.71875 77.289062 C 99.4375 93.445312 61.238281 157.785156 77.410156 221.003906 C 93.582031 284.21875 157.992188 322.375 221.28125 306.21875 C 284.566406 290.066406 322.761719 225.722656 306.59375 162.507812 C 292.945312 109.171875 244.960938 73.675781 192.28125 73.585938 Z M 0 74.128906 L 0 310.414062 L 109.164062 310.414062 C 71.945312 284.328125 47.617188 241.136719 47.617188 192.269531 C 47.617188 143.40625 71.945312 100.214844 109.164062 74.128906 Z M 274.835938 74.128906 C 312.054688 100.214844 336.382812 143.40625 336.382812 192.269531 C 336.382812 241.136719 312.054688 284.328125 274.835938 310.414062 L 384 310.414062 L 384 74.128906 Z M 188.847656 113.097656 L 194.710938 136.011719 C 205.417969 133.972656 213.78125 133.976562 221.921875 137.285156 C 232.453125 141.558594 234.890625 153.03125 235.386719 155.789062 C 235.882812 158.546875 236.027344 164.066406 234.507812 168.035156 C 232.992188 172.011719 228.039062 176.863281 228.039062 176.863281 C 228.039062 176.863281 235.277344 176.5625 241.035156 178.960938 C 246.78125 181.363281 251.996094 186.851562 254.191406 196.277344 C 256.398438 205.699219 256.855469 215.496094 249.855469 223.613281 C 243.023438 231.527344 234.441406 234.945312 230.40625 236.550781 L 230.101562 236.671875 C 228.179688 237.441406 224.84375 238.585938 221.242188 239.734375 L 227.113281 262.679688 L 212.972656 266.292969 L 207.195312 243.714844 L 196.421875 246.464844 L 202.199219 269.039062 L 188.058594 272.652344 L 182.285156 250.070312 L 154.460938 257.171875 L 153.03125 239.460938 L 161.488281 237.304688 C 164.328125 236.574219 165.449219 236.011719 166.351562 234.589844 C 167.253906 233.164062 167.078125 231.378906 166.722656 229.988281 L 151.773438 171.535156 C 150.835938 167.875 150.285156 166.960938 148.121094 165.507812 C 145.953125 164.054688 141.925781 164.816406 139.691406 165.390625 L 131.515625 167.476562 L 127.765625 152.804688 L 155.585938 145.707031 L 149.789062 123.066406 L 163.933594 119.457031 L 169.722656 142.101562 L 180.492188 139.351562 L 174.703125 116.707031 Z M 195.050781 153.777344 C 190.035156 153.753906 186.542969 154.53125 182.648438 155.464844 C 178.207031 156.53125 173.8125 158.074219 173.8125 158.074219 L 180.78125 185.335938 C 180.78125 185.335938 187.445312 183.847656 192.546875 182.332031 C 197.652344 180.816406 202.835938 178.234375 206.238281 175.042969 C 209.648438 171.851562 211.015625 167.84375 209.570312 162.730469 C 208.117188 157.613281 203.570312 154.136719 197.300781 153.835938 C 196.550781 153.800781 195.800781 153.78125 195.050781 153.777344 Z M 210.148438 194.378906 C 206.871094 194.402344 203.601562 194.71875 200.375 195.316406 C 193.25 196.644531 184.382812 199.398438 184.382812 199.398438 L 192.132812 229.695312 C 192.132812 229.695312 201.570312 227.503906 207.726562 225.433594 C 213.886719 223.371094 219.957031 220.136719 222.742188 217.523438 C 225.519531 214.917969 228.710938 211.144531 226.9375 204.21875 C 225.164062 197.285156 219.796875 195.5625 216.816406 194.917969 C 215.324219 194.59375 212.996094 194.363281 210.148438 194.378906 Z M 210.148438 194.378906 "/>
  </g>
</svg>

<svg xmlns="http://www.w3.org/2000/svg" viewBox="0 0 384 384"><path d="M192.281 73.586a118.68 118.68 0 00-29.562 3.707v-.004C99.438 93.445 61.239 157.785 77.41 221.004c16.172 63.215 80.582 101.371 143.871 85.215 63.285-16.153 101.48-80.496 85.313-143.711-13.649-53.336-61.633-88.832-114.313-88.922zM0 74.129v236.285h109.164c-37.219-26.086-61.547-69.277-61.547-118.144 0-48.864 24.328-92.055 61.547-118.141zm274.836 0c37.219 26.086 61.547 69.277 61.547 118.14 0 48.868-24.328 92.06-61.547 118.145H384V74.13zm-85.988 38.969l5.863 22.914c10.707-2.04 19.07-2.035 27.21 1.273 10.532 4.274 12.97 15.746 13.466 18.504.496 2.758.64 8.277-.88 12.246-1.515 3.977-6.468 8.828-6.468 8.828s7.238-.3 12.996 2.098c5.746 2.402 10.961 7.89 13.156 17.316 2.207 9.422 2.664 19.22-4.336 27.336-6.832 7.914-15.414 11.332-19.449 12.938l-.304.12c-1.922.77-5.258 1.915-8.86 3.063l5.871 22.946-14.14 3.613-5.778-22.578-10.773 2.75 5.777 22.574-14.14 3.613-5.774-22.582-27.824 7.102-1.43-17.711 8.457-2.156c2.84-.73 3.961-1.293 4.864-2.715.902-1.426.726-3.211.37-4.602l-14.949-58.453c-.937-3.66-1.488-4.574-3.652-6.027-2.168-1.453-6.195-.692-8.43-.117l-8.175 2.086-3.75-14.672 27.82-7.098-5.797-22.64 14.145-3.61 5.789 22.645 10.77-2.75-5.79-22.645zm6.203 40.68c-5.016-.024-8.508.753-12.403 1.687-4.441 1.066-8.835 2.61-8.835 2.61l6.968 27.26s6.664-1.487 11.766-3.003c5.105-1.516 10.289-4.098 13.691-7.289 3.41-3.191 4.778-7.2 3.332-12.313-1.453-5.117-6-8.593-12.27-8.894a54.06 54.06 0 00-2.25-.059zm15.097 40.6c-3.277.024-6.546.34-9.773.938-7.125 1.329-15.992 4.082-15.992 4.082l7.75 30.297s9.437-2.191 15.594-4.261c6.16-2.063 12.23-5.297 15.015-7.91 2.778-2.606 5.969-6.38 4.196-13.305-1.774-6.934-7.141-8.656-10.122-9.301-1.492-.324-3.82-.555-6.668-.54zm0 0"/></svg>
